X: 22053
T: Knockawhinna, The
R: jig
M: 6/8
K: Gmajor
|:E|DEF G2 A|BAG ABc|dge ded|ded cAF|
DEF G2 A|BAG ABc|d^cd =cAF|1 AGF G2:|2 AGF GFG||
|:AFA d2 e|faf gfe|d2 e dcA|GFG AFG|
AFA d2 e|faf g3|a2 a ge^c|1 ed^c ddd:|2 ed^c dc=c||
|:BAB GBd|g2 g ege|ddB cBA|BAG FED|
BAB GBd|g2 a g2 a|gec edB|1 AGF GFG:|2 AGF G2||

